images/badge-outline-colored.svg

<svg height="88" viewBox="0 0 88 88" width="88" xmlns="http://www.w3.org/2000/svg" xmlns:xlink="http://www.w3.org/1999/xlink"><linearGradient id="a" x1="15.635335%" x2="103.779554%" y1="11.857439%" y2="105.033593%"><stop offset="0" stop-color="#ff5274"/><stop offset="1" stop-color="#6446fa"/></linearGradient><path d="m348 310c22.09139 0 40-17.90861 40-40s-17.90861-40-40-40-40 17.90861-40 40 17.90861 40 40 40zm0 4c-24.300529 0-44-19.699471-44-44s19.699471-44 44-44 44 19.699471 44 44-19.699471 44-44 44zm-9.04442-29.25c1.068245-1.654637 2.928414-2.75 5.04442-2.75 3.313708 0 6 2.686292 6 6s-2.686292 6-6 6c-2.612438 0-4.834916-1.669615-5.658589-4h-5.274744c-5.007382 0-9.066667-3.995859-9.066667-8.925s4.059285-8.925 9.066667-8.925h12.781138l-2.158434-3.15h-10.622704c-5.007382 0-9.066667-3.995859-9.066667-8.925s4.059285-8.925 9.066667-8.925c2.90346 0 5.333505 1.103541 7.095396 3.369444.114912.147785.556436.778294 1.596615 2.27452l4.766178 6.956036h16.408477c2.061863 0 3.733334-1.645354 3.733334-3.675s-1.671471-3.675-3.733334-3.675h-5.43969c-.971046 1.86988-2.947144 3.15-5.226976 3.15-3.240071 0-5.866667-2.585556-5.866667-5.775s2.626596-5.775 5.866667-5.775c2.279832 0 4.25593 1.28012 5.226976 3.15h5.43969c5.007382 0 9.066667 3.995859 9.066667 8.925s-4.059285 8.925-9.066667 8.925h-12.811251l2.158336 3.15h10.652915c5.007382 0 9.066667 3.995859 9.066667 8.925s-4.059285 8.925-9.066667 8.925c-2.771791 0-5.343219-1.235421-7.154464-3.448268l-1.319188-1.833639-5.014484-7.318093h-16.37853c-2.061863 0-3.733334 1.645354-3.733334 3.675s1.671471 3.675 3.733334 3.675zm19.890589-3.017563 1.181806 1.650768c.706843.860278 1.761116 1.366795 2.905358 1.366795 2.061863 0 3.733334-1.645354 3.733334-3.675s-1.671471-3.675-3.733334-3.675h-7.055689zm-21.49889-21.988028c-.838865-1.206564-1.399617-2.007334-1.420337-2.033981-.719313-.925081-1.567863-1.310428-2.860275-1.310428-2.061863 0-3.733334 1.645354-3.733334 3.675s1.671471 3.675 3.733334 3.675h7.025312z" fill="url(#a)" transform="translate(-304 -226)"/></svg>

<?xml version="1.0" encoding="UTF-8"?>
<svg width="88px" height="88px" viewBox="0 0 88 88" version="1.1" xmlns="http://www.w3.org/2000/svg" xmlns:xlink="http://www.w3.org/1999/xlink">
    <!-- Generator: Sketch 52.6 (67491) - http://www.bohemiancoding.com/sketch -->
    <title>Fission Badge Outline</title>
    <desc>Created with Sketch.</desc>
    <defs>
        <linearGradient x1="15.635335%" y1="11.8574393%" x2="103.779554%" y2="105.033593%" id="linearGradient-1">
            <stop stop-color="#FF5274" offset="0%"></stop>
            <stop stop-color="#6446FA" offset="100%"></stop>
        </linearGradient>
    </defs>
    <g id="Page-1" stroke="none" stroke-width="1" fill="none" fill-rule="evenodd">
        <g id="Logos-Source" transform="translate(-368.000000, -1337.000000)" fill="url(#linearGradient-1)" fill-rule="nonzero">
            <g id="Badge" transform="translate(64.000000, 1111.000000)">
                <path d="M348,310 C370.09139,310 388,292.09139 388,270 C388,247.90861 370.09139,230 348,230 C325.90861,230 308,247.90861 308,270 C308,292.09139 325.90861,310 348,310 Z M348,314 C323.699471,314 304,294.300529 304,270 C304,245.699471 323.699471,226 348,226 C372.300529,226 392,245.699471 392,270 C392,294.300529 372.300529,314 348,314 Z M338.95558,284.75 C340.023825,283.095363 341.883994,282 344,282 C347.313708,282 350,284.686292 350,288 C350,291.313708 347.313708,294 344,294 C341.387562,294 339.165084,292.330385 338.341411,290 L333.066667,290 C328.059285,290 324,286.004141 324,281.075 C324,276.145859 328.059285,272.15 333.066667,272.15 L345.847805,272.15 L343.689371,269 L333.066667,269 C328.059285,269 324,265.004141 324,260.075 C324,255.145859 328.059285,251.15 333.066667,251.15 C335.970127,251.15 338.400172,252.253541 340.162063,254.519444 C340.276975,254.667229 340.718499,255.297738 341.758678,256.793964 L346.524856,263.75 L362.933333,263.75 C364.995196,263.75 366.666667,262.104646 366.666667,260.075 C366.666667,258.045354 364.995196,256.4 362.933333,256.4 L357.493643,256.4 C356.522597,258.26988 354.546499,259.55 352.266667,259.55 C349.026596,259.55 346.4,256.964444 346.4,253.775 C346.4,250.585556 349.026596,248 352.266667,248 C354.546499,248 356.522597,249.28012 357.493643,251.15 L362.933333,251.15 C367.940715,251.15 372,255.145859 372,260.075 C372,265.004141 367.940715,269 362.933333,269 L350.122082,269 L352.280418,272.15 L362.933333,272.15 C367.940715,272.15 372,276.145859 372,281.075 C372,286.004141 367.940715,290 362.933333,290 C360.161542,290 357.590114,288.764579 355.778869,286.551732 L354.459681,284.718093 L349.445197,277.4 L333.066667,277.4 C331.004804,277.4 329.333333,279.045354 329.333333,281.075 C329.333333,283.104646 331.004804,284.75 333.066667,284.75 L338.95558,284.75 Z M358.846169,281.732437 L360.027975,283.383205 C360.734818,284.243483 361.789091,284.75 362.933333,284.75 C364.995196,284.75 366.666667,283.104646 366.666667,281.075 C366.666667,279.045354 364.995196,277.4 362.933333,277.4 L355.877644,277.4 L358.846169,281.732437 Z M337.347279,259.744409 C336.508414,258.537845 335.947662,257.737075 335.926942,257.710428 C335.207629,256.785347 334.359079,256.4 333.066667,256.4 C331.004804,256.4 329.333333,258.045354 329.333333,260.075 C329.333333,262.104646 331.004804,263.75 333.066667,263.75 L340.091979,263.75 L337.347279,259.744409 Z" id="Fission-Badge-Outline"></path>
            </g>
        </g>
    </g>
</svg>
